images/3233665.svg

<?xml version="1.0" encoding="UTF-8"?>
<svg xmlns="http://www.w3.org/2000/svg" xmlns:xlink="http://www.w3.org/1999/xlink" width="300pt" height="300pt" viewBox="0 0 300 300" version="1.1">
<defs>
<g>
<symbol overflow="visible" id="glyph0-0">
<path style="stroke:none;" d="M 0.59375 2.125 L 0.59375 -8.46875 L 6.59375 -8.46875 L 6.59375 2.125 Z M 1.265625 1.453125 L 5.9375 1.453125 L 5.9375 -7.78125 L 1.265625 -7.78125 Z M 1.265625 1.453125 "/>
</symbol>
<symbol overflow="visible" id="glyph0-1">
<path style="stroke:none;" d="M 1.171875 -8.75 L 2.765625 -8.75 L 6.65625 -1.4375 L 6.65625 -8.75 L 7.796875 -8.75 L 7.796875 0 L 6.203125 0 L 2.328125 -7.3125 L 2.328125 0 L 1.171875 0 Z M 1.171875 -8.75 "/>
</symbol>
<symbol overflow="visible" id="glyph0-2">
<path style="stroke:none;" d="M 4.734375 -7.953125 C 3.867188 -7.953125 3.179688 -7.628906 2.671875 -6.984375 C 2.171875 -6.347656 1.921875 -5.472656 1.921875 -4.359375 C 1.921875 -3.265625 2.171875 -2.394531 2.671875 -1.75 C 3.179688 -1.113281 3.867188 -0.796875 4.734375 -0.796875 C 5.585938 -0.796875 6.265625 -1.113281 6.765625 -1.75 C 7.273438 -2.394531 7.53125 -3.265625 7.53125 -4.359375 C 7.53125 -5.472656 7.273438 -6.347656 6.765625 -6.984375 C 6.265625 -7.628906 5.585938 -7.953125 4.734375 -7.953125 Z M 4.734375 -8.90625 C 5.953125 -8.90625 6.925781 -8.492188 7.65625 -7.671875 C 8.394531 -6.847656 8.765625 -5.742188 8.765625 -4.359375 C 8.765625 -2.984375 8.394531 -1.882812 7.65625 -1.0625 C 6.925781 -0.238281 5.953125 0.171875 4.734375 0.171875 C 3.503906 0.171875 2.519531 -0.238281 1.78125 -1.0625 C 1.039062 -1.882812 0.671875 -2.984375 0.671875 -4.359375 C 0.671875 -5.742188 1.039062 -6.847656 1.78125 -7.671875 C 2.519531 -8.492188 3.503906 -8.90625 4.734375 -8.90625 Z M 4.734375 -8.90625 "/>
</symbol>
<symbol overflow="visible" id="glyph0-3">
<path style="stroke:none;" d="M 1.171875 -8.75 L 2.359375 -8.75 L 2.359375 -5.15625 L 6.65625 -5.15625 L 6.65625 -8.75 L 7.84375 -8.75 L 7.84375 0 L 6.65625 0 L 6.65625 -4.171875 L 2.359375 -4.171875 L 2.359375 0 L 1.171875 0 Z M 1.171875 -8.75 "/>
</symbol>
</g>
</defs>
<g id="surface33393">
<rect x="0" y="0" width="300" height="300" style="fill:rgb(100%,100%,100%);fill-opacity:1;stroke:none;"/>
<path style="fill:none;stroke-width:1.2;stroke-linecap:butt;stroke-linejoin:miter;stroke:rgb(0%,0%,0%);stroke-opacity:1;stroke-miterlimit:10;" d="M 60.355469 226.601562 L 78.285156 203.828125 "/>
<path style="fill:none;stroke-width:1.2;stroke-linecap:butt;stroke-linejoin:miter;stroke:rgb(0%,0%,0%);stroke-opacity:1;stroke-miterlimit:10;" d="M 78.285156 203.828125 L 92.628906 205.898438 "/>
<path style="fill:none;stroke-width:1.2;stroke-linecap:butt;stroke-linejoin:miter;stroke:rgb(0%,0%,100%);stroke-opacity:1;stroke-miterlimit:10;" d="M 92.628906 205.898438 L 106.972656 207.96875 "/>
<path style="fill:none;stroke-width:1.2;stroke-linecap:butt;stroke-linejoin:miter;stroke:rgb(0%,0%,0%);stroke-opacity:1;stroke-miterlimit:10;" d="M 82.128906 197.492188 L 93.601562 199.148438 "/>
<path style="fill:none;stroke-width:1.2;stroke-linecap:butt;stroke-linejoin:miter;stroke:rgb(0%,0%,100%);stroke-opacity:1;stroke-miterlimit:10;" d="M 93.601562 199.148438 L 105.078125 200.804688 "/>
<path style="fill:none;stroke-width:1.2;stroke-linecap:butt;stroke-linejoin:miter;stroke:rgb(0%,0%,0%);stroke-opacity:1;stroke-miterlimit:10;" d="M 67.527344 176.914062 L 78.285156 203.828125 "/>
<path style="fill:none;stroke-width:1.2;stroke-linecap:butt;stroke-linejoin:miter;stroke:rgb(0%,0%,100%);stroke-opacity:1;stroke-miterlimit:10;" d="M 106.972656 207.96875 L 115.9375 196.582031 "/>
<path style="fill:none;stroke-width:1.2;stroke-linecap:butt;stroke-linejoin:miter;stroke:rgb(0%,0%,0%);stroke-opacity:1;stroke-miterlimit:10;" d="M 115.9375 196.582031 L 124.902344 185.195312 "/>
<path style=" stroke:none;fill-rule:nonzero;fill:rgb(100%,100%,100%);fill-opacity:1;" d="M 102.972656 200.96875 L 111.972656 200.96875 L 111.972656 214.96875 L 102.972656 214.96875 Z M 102.972656 200.96875 "/>
<g style="fill:rgb(0%,0%,100%);fill-opacity:1;">
  <use xlink:href="#glyph0-1" x="102.972656" y="212.107422"/>
</g>
<path style="fill:none;stroke-width:1.2;stroke-linecap:butt;stroke-linejoin:miter;stroke:rgb(0%,0%,0%);stroke-opacity:1;stroke-miterlimit:10;" d="M 124.902344 185.195312 L 153.589844 189.332031 "/>
<path style="fill:none;stroke-width:1.2;stroke-linecap:butt;stroke-linejoin:miter;stroke:rgb(0%,0%,0%);stroke-opacity:1;stroke-miterlimit:10;" d="M 128.742188 178.859375 L 151.695312 182.167969 "/>
<path style="fill:none;stroke-width:1.2;stroke-linecap:butt;stroke-linejoin:miter;stroke:rgb(0%,0%,0%);stroke-opacity:1;stroke-miterlimit:10;" d="M 114.140625 158.28125 L 124.902344 185.195312 "/>
<path style="fill:none;stroke-width:1.2;stroke-linecap:butt;stroke-linejoin:miter;stroke:rgb(0%,0%,0%);stroke-opacity:1;stroke-miterlimit:10;" d="M 153.589844 189.332031 L 162.550781 177.945312 "/>
<path style="fill:none;stroke-width:1.2;stroke-linecap:butt;stroke-linejoin:miter;stroke:rgb(0%,0%,100%);stroke-opacity:1;stroke-miterlimit:10;" d="M 162.550781 177.945312 L 171.515625 166.558594 "/>
<path style="fill:none;stroke-width:1.2;stroke-linecap:butt;stroke-linejoin:miter;stroke:rgb(0%,0%,100%);stroke-opacity:1;stroke-miterlimit:10;" d="M 171.515625 166.558594 L 166.136719 153.101562 "/>
<path style="fill:none;stroke-width:1.2;stroke-linecap:butt;stroke-linejoin:miter;stroke:rgb(0%,0%,0%);stroke-opacity:1;stroke-miterlimit:10;" d="M 166.136719 153.101562 L 160.757812 139.644531 "/>
<path style="fill:none;stroke-width:1.2;stroke-linecap:butt;stroke-linejoin:miter;stroke:rgb(0%,0%,100%);stroke-opacity:1;stroke-miterlimit:10;" d="M 164.109375 166.398438 L 159.804688 155.632812 "/>
<path style="fill:none;stroke-width:1.2;stroke-linecap:butt;stroke-linejoin:miter;stroke:rgb(0%,0%,0%);stroke-opacity:1;stroke-miterlimit:10;" d="M 159.804688 155.632812 L 155.5 144.867188 "/>
<path style=" stroke:none;fill-rule:nonzero;fill:rgb(100%,100%,100%);fill-opacity:1;" d="M 167.515625 159.558594 L 176.515625 159.558594 L 176.515625 173.558594 L 167.515625 173.558594 Z M 167.515625 159.558594 "/>
<g style="fill:rgb(0%,0%,100%);fill-opacity:1;">
  <use xlink:href="#glyph0-1" x="167.515625" y="170.697266"/>
</g>
<path style="fill:none;stroke-width:1.2;stroke-linecap:butt;stroke-linejoin:miter;stroke:rgb(0%,0%,0%);stroke-opacity:1;stroke-miterlimit:10;" d="M 160.757812 139.644531 L 146.414062 137.574219 "/>
<path style="fill:none;stroke-width:1.2;stroke-linecap:butt;stroke-linejoin:miter;stroke:rgb(0%,0%,100%);stroke-opacity:1;stroke-miterlimit:10;" d="M 146.414062 137.574219 L 132.070312 135.503906 "/>
<path style="fill:none;stroke-width:1.2;stroke-linecap:butt;stroke-linejoin:miter;stroke:rgb(0%,0%,0%);stroke-opacity:1;stroke-miterlimit:10;" d="M 160.757812 139.644531 L 169.722656 128.257812 "/>
<path style="fill:none;stroke-width:1.2;stroke-linecap:butt;stroke-linejoin:miter;stroke:rgb(0%,0%,100%);stroke-opacity:1;stroke-miterlimit:10;" d="M 169.722656 128.257812 L 178.6875 116.871094 "/>
<path style="fill:none;stroke-width:1.2;stroke-linecap:butt;stroke-linejoin:miter;stroke:rgb(0%,0%,100%);stroke-opacity:1;stroke-miterlimit:10;" d="M 132.070312 135.503906 L 123.105469 146.890625 "/>
<path style="fill:none;stroke-width:1.2;stroke-linecap:butt;stroke-linejoin:miter;stroke:rgb(0%,0%,0%);stroke-opacity:1;stroke-miterlimit:10;" d="M 123.105469 146.890625 L 114.140625 158.28125 "/>
<path style="fill:none;stroke-width:1.2;stroke-linecap:butt;stroke-linejoin:miter;stroke:rgb(0%,0%,100%);stroke-opacity:1;stroke-miterlimit:10;" d="M 135.636719 142 L 128.464844 151.109375 "/>
<path style="fill:none;stroke-width:1.2;stroke-linecap:butt;stroke-linejoin:miter;stroke:rgb(0%,0%,0%);stroke-opacity:1;stroke-miterlimit:10;" d="M 128.464844 151.109375 L 121.292969 160.222656 "/>
<path style=" stroke:none;fill-rule:nonzero;fill:rgb(100%,100%,100%);fill-opacity:1;" d="M 128.070312 128.503906 L 137.070312 128.503906 L 137.070312 142.503906 L 128.070312 142.503906 Z M 128.070312 128.503906 "/>
<g style="fill:rgb(0%,0%,100%);fill-opacity:1;">
  <use xlink:href="#glyph0-1" x="128.070312" y="139.642578"/>
</g>
<path style="fill:none;stroke-width:1.2;stroke-linecap:butt;stroke-linejoin:miter;stroke:rgb(0%,0%,0%);stroke-opacity:1;stroke-miterlimit:10;" d="M 114.140625 158.28125 L 99.796875 156.210938 "/>
<path style="fill:none;stroke-width:1.2;stroke-linecap:butt;stroke-linejoin:miter;stroke:rgb(0%,0%,100%);stroke-opacity:1;stroke-miterlimit:10;" d="M 99.796875 156.210938 L 85.453125 154.140625 "/>
<path style="fill:none;stroke-width:1.2;stroke-linecap:butt;stroke-linejoin:miter;stroke:rgb(0%,0%,100%);stroke-opacity:1;stroke-miterlimit:10;" d="M 85.453125 154.140625 L 76.488281 165.527344 "/>
<path style="fill:none;stroke-width:1.2;stroke-linecap:butt;stroke-linejoin:miter;stroke:rgb(0%,0%,0%);stroke-opacity:1;stroke-miterlimit:10;" d="M 76.488281 165.527344 L 67.527344 176.914062 "/>
<path style="fill:none;stroke-width:1.2;stroke-linecap:butt;stroke-linejoin:miter;stroke:rgb(0%,0%,100%);stroke-opacity:1;stroke-miterlimit:10;" d="M 85.453125 154.140625 L 80.074219 140.683594 "/>
<path style="fill:none;stroke-width:1.2;stroke-linecap:butt;stroke-linejoin:miter;stroke:rgb(0%,0%,0%);stroke-opacity:1;stroke-miterlimit:10;" d="M 80.074219 140.683594 L 74.695312 127.226562 "/>
<path style=" stroke:none;fill-rule:nonzero;fill:rgb(100%,100%,100%);fill-opacity:1;" d="M 81.453125 147.140625 L 90.453125 147.140625 L 90.453125 161.140625 L 81.453125 161.140625 Z M 81.453125 147.140625 "/>
<g style="fill:rgb(0%,0%,100%);fill-opacity:1;">
  <use xlink:href="#glyph0-1" x="81.453125" y="158.279297"/>
</g>
<path style="fill:none;stroke-width:1.2;stroke-linecap:butt;stroke-linejoin:miter;stroke:rgb(0%,0%,0%);stroke-opacity:1;stroke-miterlimit:10;" d="M 68.011719 173.539062 L 53.667969 171.46875 "/>
<path style="fill:none;stroke-width:1.2;stroke-linecap:butt;stroke-linejoin:miter;stroke:rgb(100%,0%,0%);stroke-opacity:1;stroke-miterlimit:10;" d="M 53.667969 171.46875 L 39.324219 169.398438 "/>
<path style="fill:none;stroke-width:1.2;stroke-linecap:butt;stroke-linejoin:miter;stroke:rgb(0%,0%,0%);stroke-opacity:1;stroke-miterlimit:10;" d="M 67.039062 180.289062 L 52.695312 178.21875 "/>
<path style="fill:none;stroke-width:1.2;stroke-linecap:butt;stroke-linejoin:miter;stroke:rgb(100%,0%,0%);stroke-opacity:1;stroke-miterlimit:10;" d="M 52.695312 178.21875 L 38.351562 176.148438 "/>
<path style=" stroke:none;fill-rule:nonzero;fill:rgb(100%,100%,100%);fill-opacity:1;" d="M 28.839844 165.773438 L 38.839844 165.773438 L 38.839844 179.773438 L 28.839844 179.773438 Z M 28.839844 165.773438 "/>
<g style="fill:rgb(100%,0%,0%);fill-opacity:1;">
  <use xlink:href="#glyph0-2" x="28.839844" y="176.912109"/>
</g>
<path style="fill:none;stroke-width:1.2;stroke-linecap:butt;stroke-linejoin:miter;stroke:rgb(0%,0%,0%);stroke-opacity:1;stroke-miterlimit:10;" d="M 74.695312 127.226562 L 92.625 104.453125 "/>
<path style="fill:none;stroke-width:1.2;stroke-linecap:butt;stroke-linejoin:miter;stroke:rgb(0%,0%,0%);stroke-opacity:1;stroke-miterlimit:10;" d="M 71.128906 120.730469 L 85.472656 102.511719 "/>
<path style="fill:none;stroke-width:1.2;stroke-linecap:butt;stroke-linejoin:miter;stroke:rgb(0%,0%,0%);stroke-opacity:1;stroke-miterlimit:10;" d="M 46.007812 123.085938 L 74.695312 127.226562 "/>
<path style="fill:none;stroke-width:1.2;stroke-linecap:butt;stroke-linejoin:miter;stroke:rgb(0%,0%,0%);stroke-opacity:1;stroke-miterlimit:10;" d="M 92.625 104.453125 L 81.867188 77.539062 "/>
<path style="fill:none;stroke-width:1.2;stroke-linecap:butt;stroke-linejoin:miter;stroke:rgb(0%,0%,0%);stroke-opacity:1;stroke-miterlimit:10;" d="M 81.867188 77.539062 L 53.179688 73.398438 "/>
<path style="fill:none;stroke-width:1.2;stroke-linecap:butt;stroke-linejoin:miter;stroke:rgb(0%,0%,0%);stroke-opacity:1;stroke-miterlimit:10;" d="M 78.023438 83.875 L 55.074219 80.5625 "/>
<path style="fill:none;stroke-width:1.2;stroke-linecap:butt;stroke-linejoin:miter;stroke:rgb(0%,0%,0%);stroke-opacity:1;stroke-miterlimit:10;" d="M 53.179688 73.398438 L 35.25 96.171875 "/>
<path style="fill:none;stroke-width:1.2;stroke-linecap:butt;stroke-linejoin:miter;stroke:rgb(0%,0%,0%);stroke-opacity:1;stroke-miterlimit:10;" d="M 35.25 96.171875 L 46.007812 123.085938 "/>
<path style="fill:none;stroke-width:1.2;stroke-linecap:butt;stroke-linejoin:miter;stroke:rgb(0%,0%,0%);stroke-opacity:1;stroke-miterlimit:10;" d="M 42.660156 96.332031 L 51.265625 117.863281 "/>
<path style="fill:none;stroke-width:1.2;stroke-linecap:butt;stroke-linejoin:miter;stroke:rgb(0%,0%,100%);stroke-opacity:1;stroke-miterlimit:10;" d="M 178.6875 116.871094 L 193.03125 118.941406 "/>
<path style="fill:none;stroke-width:1.2;stroke-linecap:butt;stroke-linejoin:miter;stroke:rgb(0%,0%,0%);stroke-opacity:1;stroke-miterlimit:10;" d="M 193.03125 118.941406 L 207.375 121.011719 "/>
<path style=" stroke:none;fill-rule:nonzero;fill:rgb(100%,100%,100%);fill-opacity:1;" d="M 169.6875 109.871094 L 187.6875 109.871094 L 187.6875 123.871094 L 169.6875 123.871094 Z M 169.6875 109.871094 "/>
<g style="fill:rgb(0%,0%,100%);fill-opacity:1;">
  <use xlink:href="#glyph0-1" x="169.6875" y="121.009766"/>
  <use xlink:href="#glyph0-3" x="178.664062" y="121.009766"/>
</g>
<path style="fill:none;stroke-width:1.2;stroke-linecap:butt;stroke-linejoin:miter;stroke:rgb(0%,0%,0%);stroke-opacity:1;stroke-miterlimit:10;" d="M 207.375 121.011719 L 218.132812 147.925781 "/>
<path style="fill:none;stroke-width:1.2;stroke-linecap:butt;stroke-linejoin:miter;stroke:rgb(0%,0%,0%);stroke-opacity:1;stroke-miterlimit:10;" d="M 214.785156 121.171875 L 223.390625 142.703125 "/>
<path style="fill:none;stroke-width:1.2;stroke-linecap:butt;stroke-linejoin:miter;stroke:rgb(0%,0%,0%);stroke-opacity:1;stroke-miterlimit:10;" d="M 225.304688 98.238281 L 207.375 121.011719 "/>
<path style="fill:none;stroke-width:1.2;stroke-linecap:butt;stroke-linejoin:miter;stroke:rgb(0%,0%,0%);stroke-opacity:1;stroke-miterlimit:10;" d="M 218.132812 147.925781 L 246.820312 152.066406 "/>
<path style="fill:none;stroke-width:1.2;stroke-linecap:butt;stroke-linejoin:miter;stroke:rgb(0%,0%,0%);stroke-opacity:1;stroke-miterlimit:10;" d="M 246.820312 152.066406 L 264.75 129.289062 "/>
<path style="fill:none;stroke-width:1.2;stroke-linecap:butt;stroke-linejoin:miter;stroke:rgb(0%,0%,0%);stroke-opacity:1;stroke-miterlimit:10;" d="M 243.253906 145.570312 L 257.597656 127.347656 "/>
<path style="fill:none;stroke-width:1.2;stroke-linecap:butt;stroke-linejoin:miter;stroke:rgb(0%,0%,0%);stroke-opacity:1;stroke-miterlimit:10;" d="M 246.820312 152.066406 L 252.199219 165.523438 "/>
<path style="fill:none;stroke-width:1.2;stroke-linecap:butt;stroke-linejoin:miter;stroke:rgb(100%,0%,0%);stroke-opacity:1;stroke-miterlimit:10;" d="M 252.199219 165.523438 L 257.578125 178.980469 "/>
<path style="fill:none;stroke-width:1.2;stroke-linecap:butt;stroke-linejoin:miter;stroke:rgb(0%,0%,0%);stroke-opacity:1;stroke-miterlimit:10;" d="M 264.75 129.289062 L 253.992188 102.375 "/>
<path style="fill:none;stroke-width:1.2;stroke-linecap:butt;stroke-linejoin:miter;stroke:rgb(0%,0%,0%);stroke-opacity:1;stroke-miterlimit:10;" d="M 253.992188 102.375 L 225.304688 98.238281 "/>
<path style="fill:none;stroke-width:1.2;stroke-linecap:butt;stroke-linejoin:miter;stroke:rgb(0%,0%,0%);stroke-opacity:1;stroke-miterlimit:10;" d="M 250.148438 108.710938 L 227.199219 105.402344 "/>
<path style="fill:none;stroke-width:1.2;stroke-linecap:butt;stroke-linejoin:miter;stroke:rgb(100%,0%,0%);stroke-opacity:1;stroke-miterlimit:10;" d="M 257.578125 178.980469 L 248.613281 190.367188 "/>
<path style="fill:none;stroke-width:1.2;stroke-linecap:butt;stroke-linejoin:miter;stroke:rgb(0%,0%,0%);stroke-opacity:1;stroke-miterlimit:10;" d="M 248.613281 190.367188 L 239.652344 201.753906 "/>
<path style=" stroke:none;fill-rule:nonzero;fill:rgb(100%,100%,100%);fill-opacity:1;" d="M 252.578125 171.980469 L 262.578125 171.980469 L 262.578125 185.980469 L 252.578125 185.980469 Z M 252.578125 171.980469 "/>
<g style="fill:rgb(100%,0%,0%);fill-opacity:1;">
  <use xlink:href="#glyph0-2" x="252.578125" y="183.119141"/>
</g>
</g>
</svg>

<svg xmlns="http://www.w3.org/2000/svg" xmlns:xlink="http://www.w3.org/1999/xlink" width="300pt" height="300pt" viewBox="0 0 300 300"><defs><symbol overflow="visible"><path d="M.594 2.125V-8.47h6V2.126zm.672-.672h4.671V-7.78h-4.67zm0 0"/></symbol><symbol overflow="visible" id="a"><path d="M1.172-8.75h1.594l3.89 7.313V-8.75h1.14V0H6.204L2.328-7.313V0H1.172zm0 0"/></symbol><symbol overflow="visible" id="b"><path d="M4.734-7.953c-.867 0-1.554.324-2.062.97-.5.635-.75 1.51-.75 2.624 0 1.094.25 1.965.75 2.61.508.637 1.195.953 2.062.953.852 0 1.532-.316 2.032-.953.507-.645.765-1.516.765-2.61 0-1.113-.257-1.988-.764-2.624-.5-.645-1.18-.97-2.032-.97zm0-.953c1.22 0 2.192.414 2.922 1.234.74.824 1.11 1.93 1.11 3.313 0 1.376-.37 2.477-1.11 3.298C6.926-.24 5.953.17 4.734.17c-1.23 0-2.214-.41-2.953-1.234C1.04-1.882.673-2.984.673-4.36c0-1.382.367-2.488 1.11-3.312.738-.82 1.722-1.234 2.952-1.234zm0 0"/></symbol><symbol overflow="visible" id="c"><path d="M1.172-8.75H2.36v3.594h4.296V-8.75h1.188V0H6.656v-4.172H2.36V0H1.17zm0 0"/></symbol></defs><g><path fill="#fff" d="M0 0h300v300H0z"/><path d="M60.355 226.602l17.93-22.774M78.285 203.828l14.344 2.07" stroke-width="1.2" stroke="#000" stroke-miterlimit="10" fill="none"/><path d="M92.63 205.898l14.343 2.07" stroke-width="1.2" stroke="#00f" stroke-miterlimit="10" fill="none"/><path d="M82.13 197.492l11.472 1.656" stroke-width="1.2" stroke="#000" stroke-miterlimit="10" fill="none"/><path d="M93.602 199.148l11.476 1.657" stroke-width="1.2" stroke="#00f" stroke-miterlimit="10" fill="none"/><path d="M67.527 176.914l10.758 26.914" stroke-width="1.2" stroke="#000" stroke-miterlimit="10" fill="none"/><path d="M106.973 207.97l8.965-11.388" stroke-width="1.2" stroke="#00f" stroke-miterlimit="10" fill="none"/><path d="M115.938 196.582l8.964-11.387" stroke-width="1.2" stroke="#000" stroke-miterlimit="10" fill="none"/><path d="M102.973 200.97h9v14h-9zm0 0" fill="#fff"/><use xlink:href="#a" x="102.973" y="212.107" fill="#00f"/><path d="M124.902 185.195l28.688 4.137M128.742 178.86l22.953 3.308M114.14 158.28l10.762 26.915M153.59 189.332l8.96-11.387" stroke-width="1.2" stroke="#000" stroke-miterlimit="10" fill="none"/><path d="M162.55 177.945l8.966-11.386M171.516 166.56l-5.38-13.458" stroke-width="1.2" stroke="#00f" stroke-miterlimit="10" fill="none"/><path d="M166.137 153.102l-5.38-13.457" stroke-width="1.2" stroke="#000" stroke-miterlimit="10" fill="none"/><path d="M164.11 166.398l-4.305-10.765" stroke-width="1.2" stroke="#00f" stroke-miterlimit="10" fill="none"/><path d="M159.805 155.633l-4.305-10.766" stroke-width="1.2" stroke="#000" stroke-miterlimit="10" fill="none"/><path d="M167.516 159.56h9v14h-9zm0 0" fill="#fff"/><use xlink:href="#a" x="167.516" y="170.697" fill="#00f"/><path d="M160.758 139.645l-14.344-2.07" stroke-width="1.2" stroke="#000" stroke-miterlimit="10" fill="none"/><path d="M146.414 137.574l-14.344-2.07" stroke-width="1.2" stroke="#00f" stroke-miterlimit="10" fill="none"/><path d="M160.758 139.645l8.965-11.387" stroke-width="1.2" stroke="#000" stroke-miterlimit="10" fill="none"/><path d="M169.723 128.258l8.964-11.387M132.07 135.504l-8.965 11.387" stroke-width="1.2" stroke="#00f" stroke-miterlimit="10" fill="none"/><path d="M123.105 146.89l-8.964 11.39" stroke-width="1.2" stroke="#000" stroke-miterlimit="10" fill="none"/><path d="M135.637 142l-7.172 9.11" stroke-width="1.2" stroke="#00f" stroke-miterlimit="10" fill="none"/><path d="M128.465 151.11l-7.172 9.113" stroke-width="1.2" stroke="#000" stroke-miterlimit="10" fill="none"/><path d="M128.07 128.504h9v14h-9zm0 0" fill="#fff"/><use xlink:href="#a" x="128.07" y="139.643" fill="#00f"/><path d="M114.14 158.28l-14.343-2.07" stroke-width="1.2" stroke="#000" stroke-miterlimit="10" fill="none"/><path d="M99.797 156.21l-14.344-2.07M85.453 154.14l-8.965 11.387" stroke-width="1.2" stroke="#00f" stroke-miterlimit="10" fill="none"/><path d="M76.488 165.527l-8.96 11.387" stroke-width="1.2" stroke="#000" stroke-miterlimit="10" fill="none"/><path d="M85.453 154.14l-5.38-13.456" stroke-width="1.2" stroke="#00f" stroke-miterlimit="10" fill="none"/><path d="M80.074 140.684l-5.38-13.457" stroke-width="1.2" stroke="#000" stroke-miterlimit="10" fill="none"/><path d="M81.453 147.14h9v14h-9zm0 0" fill="#fff"/><use xlink:href="#a" x="81.453" y="158.279" fill="#00f"/><path d="M68.012 173.54l-14.344-2.07" stroke-width="1.2" stroke="#000" stroke-miterlimit="10" fill="none"/><path d="M53.668 171.47l-14.344-2.072" stroke-width="1.2" stroke="#f00" stroke-miterlimit="10" fill="none"/><path d="M67.04 180.29l-14.345-2.07" stroke-width="1.2" stroke="#000" stroke-miterlimit="10" fill="none"/><path d="M52.695 178.22l-14.343-2.072" stroke-width="1.2" stroke="#f00" stroke-miterlimit="10" fill="none"/><path d="M28.84 165.773h10v14h-10zm0 0" fill="#fff"/><use xlink:href="#b" x="28.84" y="176.912" fill="#f00"/><path d="M74.695 127.227l17.93-22.774M71.13 120.73l14.343-18.218M46.008 123.086l28.687 4.14M92.625 104.453L81.867 77.54M81.867 77.54L53.18 73.397M78.023 83.875l-22.95-3.313M53.18 73.398L35.25 96.172M35.25 96.172l10.758 26.914M42.66 96.332l8.606 21.53" stroke-width="1.2" stroke="#000" stroke-miterlimit="10" fill="none"/><path d="M178.688 116.87l14.343 2.07" stroke-width="1.2" stroke="#00f" stroke-miterlimit="10" fill="none"/><path d="M193.03 118.94l14.345 2.072" stroke-width="1.2" stroke="#000" stroke-miterlimit="10" fill="none"/><path d="M169.688 109.87h18v14h-18zm0 0" fill="#fff"/><g fill="#00f"><use xlink:href="#a" x="169.688" y="121.01"/><use xlink:href="#c" x="178.664" y="121.01"/></g><path d="M207.375 121.012l10.758 26.914M214.785 121.172l8.606 21.53M225.305 98.238l-17.93 22.774M218.133 147.926l28.687 4.14M246.82 152.066l17.93-22.777M243.254 145.57l14.344-18.222M246.82 152.066l5.38 13.457" stroke-width="1.2" stroke="#000" stroke-miterlimit="10" fill="none"/><path d="M252.2 165.523l5.378 13.457" stroke-width="1.2" stroke="#f00" stroke-miterlimit="10" fill="none"/><path d="M264.75 129.29l-10.758-26.915M253.992 102.375l-28.687-4.137M250.148 108.71l-22.95-3.308" stroke-width="1.2" stroke="#000" stroke-miterlimit="10" fill="none"/><path d="M257.578 178.98l-8.965 11.387" stroke-width="1.2" stroke="#f00" stroke-miterlimit="10" fill="none"/><path d="M248.613 190.367l-8.96 11.387" stroke-width="1.2" stroke="#000" stroke-miterlimit="10" fill="none"/><path d="M252.578 171.98h10v14h-10zm0 0" fill="#fff"/><use xlink:href="#b" x="252.578" y="183.119" fill="#f00"/></g></svg>
